packages/icons/src/canvas-selector.svg

<svg viewBox="0 0 14 14" xmlns="http://www.w3.org/2000/svg"><path d="m0 8h1v1h-1zm0 5h1v-1h-1zm0-2h1v-1h-1zm0-4h1v-1h-1zm0-6h1v-1h-1zm0 4h1v-1h-1zm0-2h1v-1h-1zm12 6h1v-1h-1zm1-3h-1v1h1zm-2-6h-1v1h1zm2 0h-1v1h1zm0 2h-1v1h1zm0 2h-1v1h1zm-9-3h1v-1h-1zm8 13h1v-1h-1zm-4-13h1v-1h-1zm2 11v1h2v-1zm3-2h-1v2h1zm0 2v1h1v-1zm-9 1h1v-1h-1zm-2 0h1v-1h-1zm0-12h1v-1h-1zm6 12h1v-1h-1zm-2-12h1v-1h-1zm0 12h1v-1h-1z"/></svg>

<svg viewBox="0 0 14 14" xmlns="http://www.w3.org/2000/svg"><path d="M0 8h1v1H0V8zm0 5h1v-1H0v1zm0-2h1v-1H0v1zm0-4h1V6H0v1zm0-6h1V0H0v1zm0 4h1V4H0v1zm0-2h1V2H0v1zm12 6h1V8h-1v1zm1-3h-1v1h1V6zm-2-6h-1v1h1V0zm2 0h-1v1h1V0zm0 2h-1v1h1V2zm0 2h-1v1h1V4zM4 1h1V0H4v1zm8 13h1v-1h-1v1zM8 1h1V0H8v1zm2 11v1h2v-1h-2zm3-2h-1v2h1v-2zm0 2v1h1v-1h-1zm-9 1h1v-1H4v1zm-2 0h1v-1H2v1zM2 1h1V0H2v1zm6 12h1v-1H8v1zM6 1h1V0H6v1zm0 12h1v-1H6v1z" fill="#000" fill-rule="nonzero"/></svg>
